skatepark/assets/svg/post-date.svg

<svg fill="none" height="18" viewBox="0 0 18 18" width="18" xmlns="http://www.w3.org/2000/svg"><path clip-rule="evenodd" d="m16.5 4h-15v12c0 .2761.22386.5.5.5h14c.2761 0 .5-.2239.5-.5zm-16.5 0v-2c0-1.104569.895431-2 2-2h14c1.1046 0 2 .895431 2 2v2 12c0 1.1046-.8954 2-2 2h-14c-1.104569 0-2-.8954-2-2zm4 3h2v2h-2zm2 4h-2v2h2zm2-4h2v2h-2zm6 0h-2v2h2zm-6 4h2v2h-2zm6 0h-2v2h2z" fill="#000" fill-rule="evenodd"/></svg>

<svg width="18" height="18" viewBox="0 0 18 18" fill="none" xmlns="http://www.w3.org/2000/svg">
<path fill-rule="evenodd" clip-rule="evenodd" d="M16.5 4H1.5V16C1.5 16.2761 1.72386 16.5 2 16.5H16C16.2761 16.5 16.5 16.2761 16.5 16V4ZM0 4V2C0 0.895431 0.895431 0 2 0H16C17.1046 0 18 0.895431 18 2V4V16C18 17.1046 17.1046 18 16 18H2C0.895431 18 0 17.1046 0 16V4ZM4 7H6V9H4V7ZM6 11H4V13H6V11ZM8 7H10V9H8V7ZM14 7H12V9H14V7ZM8 11H10V13H8V11ZM14 11H12V13H14V11Z" fill="black"/>
</svg>
